X: 1089
T: Drive the Cold Winter Away (A43)
N: page A43
N: heptatonic
M: 3/4
L: 1/8
K: Em
(E2 |:"Em" G3 FE2|"G" B4) (e2|"Bm" d3 cB2|"C"g4) (G2|"Am"A4 B2|
"C"(c3 d c2|"B7"B6|[1 "B7/D#"B4) E2:|[2 "B7/D#" B4  |: (e2|"G"d3 c B2|
"G/B"d4) (d2|"Am" c3 B A2|"Am/C"c4) (c2|"Em/B" B3 AG2|[1"B7"G2F2E2)|
"Em"g6-|"Em/G"g4:|[2 "B7"(F3 E F2|"Em"E6|E6|
